packages/icons/src/svg/core/data-services.svg

<svg xmlns="http://www.w3.org/2000/svg" viewBox="0 0 16 16">
<g>
  <path class="ti-foreground" d="M12.54,9.8502 C12.3,9.8502 12.11,9.8902 11.98,9.9592 C11.85,10.0392 11.75,10.1502 11.69,10.3102 C11.62,10.4702 11.58,10.7402 11.58,11.1202 C11.58,11.1902 11.58,11.2602 11.59,11.3402 C11.59,11.4502 11.6,11.5702 11.6,11.6902 C11.6,12.2202 11.54,12.6202 11.43,12.8802 C11.31,13.1502 11.12,13.3502 10.86,13.4902 C10.59,13.6302 10.14,13.6902 9.5,13.6902 L8.89,13.6902 L8.89,12.1102 C9.21,12.1102 9.42,12.0902 9.52,12.0302 C9.63,11.9702 9.71,11.8802 9.75,11.7492 C9.8,11.6102 9.82,11.3292 9.82,10.8902 C9.82,10.4002 9.86,10.0392 9.93,9.8202 C10.01,9.6002 10.1,9.4302 10.2,9.3202 C10.31,9.2092 10.47,9.1102 10.69,9.0102 C10.48,8.9192 10.33,8.8292 10.24,8.7402 C10.12,8.6202 10.02,8.4702 9.96,8.2702 C9.87,8.0202 9.82,7.6802 9.82,7.2402 C9.82,6.8002 9.8,6.5392 9.78,6.4402 C9.74,6.2602 9.67,6.1302 9.57,6.0392 C9.46,5.9502 9.31,5.9102 9.11,5.9102 L8.89,5.9102 L8.89,4.3102 L9.55,4.3102 C9.92,4.3102 10.25,4.3402 10.54,4.4102 C10.76,4.4592 10.93,4.5392 11.06,4.6502 C11.22,4.7802 11.36,4.9802 11.45,5.2402 C11.55,5.4902 11.6,5.9102 11.6,6.4902 C11.6,6.5602 11.6,6.6402 11.59,6.7092 L11.59,6.8802 C11.59,7.2602 11.63,7.5392 11.69,7.7002 C11.76,7.8602 11.85,7.9802 11.98,8.0502 C12.1,8.1302 12.29,8.1692 12.54,8.1692 L12.54,9.8502 Z M7.12,5.9102 L6.9,5.9102 C6.7,5.9102 6.54,5.9502 6.44,6.0392 C6.34,6.1302 6.27,6.2602 6.23,6.4402 C6.2,6.5392 6.19,6.8002 6.19,7.2402 C6.18,7.6802 6.14,8.0202 6.05,8.2702 C5.98,8.4702 5.89,8.6202 5.77,8.7402 C5.68,8.8292 5.53,8.9192 5.32,9.0102 C5.54,9.1102 5.7,9.2092 5.8,9.3202 C5.91,9.4302 6,9.6002 6.07,9.8202 C6.15,10.0392 6.19,10.4002 6.19,10.8902 C6.19,11.3292 6.21,11.6102 6.25,11.7492 C6.3,11.8802 6.38,11.9702 6.48,12.0302 C6.59,12.0902 6.8,12.1102 7.12,12.1102 L7.12,13.6902 L6.5,13.6902 C5.87,13.6902 5.42,13.6302 5.15,13.4902 C4.88,13.3502 4.69,13.1502 4.58,12.8802 C4.47,12.6202 4.41,12.2202 4.41,11.6902 C4.41,11.5702 4.41,11.4502 4.42,11.3402 L4.42,11.1202 C4.42,10.7402 4.39,10.4702 4.32,10.3102 C4.25,10.1502 4.15,10.0392 4.03,9.9592 C3.9,9.8902 3.71,9.8502 3.47,9.8502 L3.47,8.1692 C3.72,8.1692 3.9,8.1302 4.03,8.0502 C4.16,7.9802 4.25,7.8602 4.32,7.7002 C4.38,7.5392 4.41,7.2602 4.41,6.8802 L4.41,6.4902 C4.41,5.9102 4.46,5.4902 4.55,5.2402 C4.65,4.9802 4.78,4.7802 4.95,4.6502 C5.08,4.5392 5.25,4.4592 5.47,4.4102 C5.76,4.3402 6.09,4.3102 6.46,4.3102 L7.12,4.3102 L7.12,5.9102 Z M8,-0.0008 C4.1,-0.0008 1,1.3002 1,2.9992 L1,4.9992 L1,13.4992 L1.11,13.4992 C1.65,14.9502 4.49,15.9992 8,15.9992 C11.5,15.9992 14.34,14.9502 14.88,13.4992 L15,13.4992 L15,4.9992 L15,2.9992 C15,1.3002 11.9,-0.0008 8,-0.0008 L8,-0.0008 Z"/>
</g>
</svg>

<svg xmlns="http://www.w3.org/2000/svg" viewBox="0 0 16 16">
    <g>
        <path class="ti-foreground" d="M12.54 9.85c-.24 0-.43.04-.56.11a.678.678 0 00-.29.35c-.07.16-.11.43-.11.81 0 .07 0 .14.01.22 0 .11.01.23.01.35 0 .53-.06.93-.17 1.19-.12.27-.31.47-.57.61-.27.14-.72.2-1.36.2h-.61v-1.58c.32 0 .53-.02.63-.08.11-.06.19-.15.23-.28.05-.14.07-.42.07-.86 0-.49.04-.85.11-1.07.08-.22.17-.39.27-.5.11-.11.27-.21.49-.31-.21-.09-.36-.18-.45-.27-.12-.12-.22-.27-.28-.47-.09-.25-.14-.59-.14-1.03 0-.44-.02-.7-.04-.8a.736.736 0 00-.21-.4c-.11-.09-.26-.13-.46-.13h-.22v-1.6h.66c.37 0 .7.03.99.1.22.05.39.13.52.24.16.13.3.33.39.59.1.25.15.67.15 1.25 0 .07 0 .15-.01.22v.17c0 .38.04.66.1.82.07.16.16.28.29.35.12.08.31.12.56.12v1.68zM7.12 5.91H6.9c-.2 0-.36.04-.46.13a.736.736 0 00-.21.4c-.03.1-.04.36-.04.8-.01.44-.05.78-.14 1.03-.07.2-.16.35-.28.47-.09.09-.24.18-.45.27.22.1.38.2.48.31.11.11.2.28.27.5.08.22.12.58.12 1.07 0 .44.02.72.06.86a.54.54 0 00.23.28c.11.06.32.08.64.08v1.58H6.5c-.63 0-1.08-.06-1.35-.2s-.46-.34-.57-.61c-.11-.26-.17-.66-.17-1.19 0-.12 0-.24.01-.35v-.22c0-.38-.03-.65-.1-.81a.787.787 0 00-.29-.35c-.13-.07-.32-.11-.56-.11V8.17c.25 0 .43-.04.56-.12.13-.07.22-.19.29-.35.06-.16.09-.44.09-.82v-.39c0-.58.05-1 .14-1.25.1-.26.23-.46.4-.59.13-.11.3-.19.52-.24.29-.07.62-.1.99-.1h.66v1.6zM8 0C4.1 0 1 1.3 1 3v10.5h.11C1.65 14.95 4.49 16 8 16c3.5 0 6.34-1.05 6.88-2.5H15V3c0-1.7-3.1-3-7-3z"/>
    </g>
</svg>
